public/showcase/resources/images/home/bmw.svg

<svg height="37" viewBox="0 0 38 37" width="38" xmlns="http://www.w3.org/2000/svg" xmlns:xlink="http://www.w3.org/1999/xlink"><mask id="a" fill="#fff"><path d="m37.7204286 18.4802517v-18.20901032h-37.7204286v18.20901032 18.2090104h37.7204286z" fill="none"/></mask><g fill="none" fill-rule="evenodd" transform=""><path d="m18.8629286 36.1874c-10.1134286 0-18.3404286-7.9433103-18.3404286-17.708 0-9.76468966 8.227-17.70537931 18.3404286-17.70537931 10.1147857 0 18.335 7.94068965 18.335 17.70537931 0 9.7646897-8.2202143 17.708-18.335 17.708m0-35.91655172c-10.40114289 0-18.8629286 8.17-18.8629286 18.20855172 0 10.0411724 8.46178571 18.2098621 18.8629286 18.2098621 10.3984285 0 18.8575-8.1686897 18.8575-18.2098621 0-10.03855172-8.4590715-18.20855172-18.8575-18.20855172" fill="#231f20" mask="url(#a)" transform="translate(0 .039103)"/><g fill="#fff"><path d="m8.11313571 11.3701793c.01764286.0157241.03528572.0301379.05292858.0432414.00407142.0013103.01492857-.0131035.01492857-.0144138.36914285-.4455172.73964285-.8897241 1.10335714-1.3313103.13435714-.16117246.27007143-.32234488.40307143-.48613798.13707143-.16117241.16557143-.37344828.08685714-.56475862-.10314286-.19917241-.30264286-.33151724-.53742857-.32365517-.19135714.00655172-.34064286.10613793-.45735714.24634483-.16421429.19524137-.32571429.39310344-.48857143.58965517-.33521429.39965517-.665.80455177-.9975 1.20682757.171.1349655.34607143.2673104.51842857.4009655.10314286.0773104.20221429.1546207.30128571.2332414"/><path d="m29.5854429 12.9006621-.6473572-1.0679311 2.2284286-2.82379307-3.3412857 1.47937927-.9391429-.83862065 3.0440714-3.86551724.9432143.84124138-1.7602143 2.22889655 2.8106429-1.24482758.8251429.99062068-1.8755715 2.37434486 2.6328572-1.16751727.6487143 1.06924137zm-10.7227858 16.4880689c-6.2157142 0-11.25478567-4.8666207-11.25478567-10.8693103 0-6.004 5.03907147-10.86800001 11.25478567-10.86800001 6.2170715 0 11.2575 4.86400001 11.2575 10.86800001 0 6.0026896-5.0404285 10.8693103-11.2575 10.8693103zm-14.28257139-19.1192413c-.13164285-.1074483-.26735714-.2135863-.40578571-.31841384-.00407143-.00131034-.0475-.03668965-.0475-.038.02442857-.02882758.04342857-.05634483.07192857-.08386207.3515-.42324138.69757143-.84517241 1.04907143-1.26710345.40985714-.49137931.81564286-.98668965 1.2255-1.47544827.07735714-.09172414.15335714-.18868966.23342857-.28434483.13571429-.1637931.32028572-.29089655.52385714-.3682069.44107143-.15593103.94321429-.05372413 1.27842858.26206897.16285714.15462069.27957142.35117241.33385714.56475862.05564286.22275862.03528571.43896552-.02985714.65386207.02985714-.02358621.06107142-.05110345.09364285-.07337931.39492857-.26731035.91064286-.34331035 1.35849996-.14675862.4465.19655172.7342143.58572414.8020715 1.05089655.0176428.17296552.0067857.34855172-.0434286.5202069-.1031429.32496551-.342.57131034-.5577857.82944828-.4193572.5071034-.84007144 1.0102759-1.2567143 1.516069-.34878571.421931-.70028571.8412413-1.04907143 1.2631724-.02714286.0327586-.05021428.0615862-.07871428.0930345-.00407143.007862-.03257143-.0222759-.04071429-.0288276-.12621429-.0995862-.25921429-.1978621-.38678571-.300069-.51164286-.3917931-1.01785715-.7875172-1.5295-1.1793103-.513-.3957242-1.02871429-.7966897-1.54442858-1.1897931zm11.37285719-8.0546897 1.6869285-.18082759 1.2227857 3.44096552 1.2187143-3.44096552 1.6882857.18082759.1872858 4.89282759-1.3137143-.18082759-.1275715-3.26144828-1.1861428 3.26144828h-.9391429l-1.1888571-3.26144828-.1207857 3.26144828-1.3137143.18082759zm2.9097142-1.08627586c-9.94921424 0-18.01199996 7.78606896-18.01199996 17.39089656 0 9.6035172 8.06278572 17.3908965 18.01199996 17.3908965 9.9465 0 18.012-7.7873793 18.012-17.3908965 0-9.6048276-8.0655-17.39089656-18.012-17.39089656z"/><path d="m8.07133571 8.26715172c.04207143-.17820689 0-.36296551-.12892857-.50186206-.15742857-.16379311-.41257143-.22013794-.63242857-.13496552-.15742857.06289655-.25242857.19524138-.35421428.32365517-.40035715.47565517-.79257143.95131035-1.1875 1.42696552-.00407143.00655172-.08957143.10744827-.08278572.11006896.07464286.06158621.15607143.12186207.23885714.18606897.21035715.16510345.42342858.32889654.63107143.49400004.21171429-.25420694.41528572-.50317246.62564286-.75606901.21035714-.25027586.41528571-.49924138.62564286-.75082758.10042857-.12448276.21714285-.23979311.26464285-.39703449"/><path d="m8.17407143 18.5188966h10.68885717v-10.31765522c-5.8343572.14806896-10.53550003 4.68579312-10.68885717 10.31765522"/><path d="m18.8629286 28.8398276c5.833-.1493793 10.5341428-4.6897242 10.6875-10.3202759h-10.6875z"/></g></g></svg>

<?xml version="1.0" encoding="UTF-8"?>
<svg width="38px" height="37px" viewBox="0 0 38 37" version="1.1" xmlns="http://www.w3.org/2000/svg" xmlns:xlink="http://www.w3.org/1999/xlink">
    <!-- Generator: sketchtool 45.2 (43514) - http://www.bohemiancoding.com/sketch -->
    <title>EBBF45F5-B7AD-49D5-BCA6-6164F3905A36</title>
    <desc>Created with sketchtool.</desc>
    <defs>
        <polygon id="path-1" points="37.7204286 18.4802517 37.7204286 0.271241379 0 0.271241379 0 18.4802517 0 36.6892621 37.7204286 36.6892621 37.7204286 18.4802517"></polygon>
    </defs>
    <g id="Page-1" stroke="none" stroke-width="1" fill="none" fill-rule="evenodd">
        <g id="PrimeReact-Showcase---Homepage" transform="translate(-720.000000, -1195.000000)">
            <g id="homepage" transform="translate(301.000000, 70.000000)">
                <g id="brands" transform="translate(0.000000, 1019.000000)">
                    <g transform="translate(109.000000, 27.000000)" id="bmw">
                        <g transform="translate(310.000000, 79.000000)">
                            <g id="Group-3" transform="translate(0.000000, 0.039103)">
                                <mask id="mask-2" fill="white">
                                    <use xlink:href="#path-1"></use>
                                </mask>
                                <g id="Clip-2"></g>
                                <path d="M18.8629286,36.1874 C8.7495,36.1874 0.5225,28.2440897 0.5225,18.4794 C0.5225,8.71471034 8.7495,0.77402069 18.8629286,0.77402069 C28.9777143,0.77402069 37.1979286,8.71471034 37.1979286,18.4794 C37.1979286,28.2440897 28.9777143,36.1874 18.8629286,36.1874 M18.8629286,0.270848276 C8.46178571,0.270848276 0,8.44084828 0,18.4794 C0,28.5205724 8.46178571,36.6892621 18.8629286,36.6892621 C29.2613571,36.6892621 37.7204286,28.5205724 37.7204286,18.4794 C37.7204286,8.44084828 29.2613571,0.270848276 18.8629286,0.270848276" id="Fill-1" fill="#231F20" mask="url(#mask-2)"></path>
                            </g>
                            <path d="M8.11313571,11.3701793 C8.13077857,11.3859034 8.14842143,11.4003172 8.16606429,11.4134207 C8.17013571,11.414731 8.18099286,11.4003172 8.18099286,11.3990069 C8.55013571,10.9534897 8.92063571,10.5092828 9.28435,10.0676966 C9.41870714,9.90652414 9.55442143,9.74535172 9.68742143,9.58155862 C9.82449286,9.42038621 9.85299286,9.20811034 9.77427857,9.0168 C9.67113571,8.81762759 9.47163571,8.68528276 9.23685,8.69314483 C9.04549286,8.69969655 8.89620714,8.79928276 8.77949286,8.93948966 C8.61527857,9.13473103 8.45377857,9.3325931 8.29092143,9.52914483 C7.95570714,9.9288 7.62592143,10.3336966 7.29342143,10.7359724 C7.46442143,10.8709379 7.63949286,11.0032828 7.81185,11.1369379 C7.91499286,11.2142483 8.01406429,11.2915586 8.11313571,11.3701793" id="Fill-4" fill="#FFFFFF"></path>
                            <path d="M29.5854429,12.9006621 L28.9380857,11.832731 L31.1665143,9.00893793 L27.8252286,10.4883172 L26.8860857,9.64969655 L29.9301571,5.78417931 L30.8733714,6.62542069 L29.1131571,8.85431724 L31.9238,7.60948966 L32.7489429,8.60011034 L30.8733714,10.9744552 L33.5062286,9.80693793 L34.1549429,10.8761793 L29.5854429,12.9006621 Z M18.8626571,29.388731 C12.6469429,29.388731 7.60787143,24.5221103 7.60787143,18.5194207 C7.60787143,12.5154207 12.6469429,7.65142069 18.8626571,7.65142069 C25.0797286,7.65142069 30.1201571,12.5154207 30.1201571,18.5194207 C30.1201571,24.5221103 25.0797286,29.388731 18.8626571,29.388731 L18.8626571,29.388731 Z M4.58008571,10.2694897 C4.44844286,10.1620414 4.31272857,10.0559034 4.1743,9.95107586 C4.17022857,9.94976552 4.1268,9.91438621 4.1268,9.91307586 C4.15122857,9.88424828 4.17022857,9.85673103 4.19872857,9.82921379 C4.55022857,9.40597241 4.8963,8.98404138 5.2478,8.56211034 C5.65765714,8.07073103 6.06344286,7.57542069 6.4733,7.08666207 C6.55065714,6.99493793 6.62665714,6.89797241 6.70672857,6.80231724 C6.84244286,6.63852414 7.02701429,6.51142069 7.23058571,6.43411034 C7.67165714,6.27817931 8.1738,6.38038621 8.50901429,6.69617931 C8.67187143,6.8508 8.78858571,7.04735172 8.84287143,7.26093793 C8.89851429,7.48369655 8.87815714,7.69990345 8.81301429,7.9148 C8.84287143,7.89121379 8.87408571,7.86369655 8.90665714,7.84142069 C9.30158571,7.57411034 9.8173,7.49811034 10.2651571,7.69466207 C10.7116571,7.89121379 10.9993714,8.28038621 11.0672286,8.74555862 C11.0848714,8.91852414 11.0740143,9.09411034 11.0238,9.26576552 C10.9206571,9.59073103 10.6818,9.83707586 10.4660143,10.0952138 C10.0466571,10.6023172 9.62594286,11.1054897 9.2093,11.6112828 C8.86051429,12.0332138 8.50901429,12.4525241 8.16022857,12.8744552 C8.13308571,12.9072138 8.11001429,12.9360414 8.08151429,12.9674897 C8.07744286,12.9753517 8.04894286,12.9452138 8.0408,12.9386621 C7.91458571,12.8390759 7.78158571,12.7408 7.65401429,12.6385931 C7.14237143,12.2468 6.63615714,11.8510759 6.12451429,11.4592828 C5.61151429,11.0635586 5.0958,10.6625931 4.58008571,10.2694897 L4.58008571,10.2694897 Z M15.9529429,2.2148 L17.6398714,2.03397241 L18.8626571,5.47493793 L20.0813714,2.03397241 L21.7696571,2.2148 L21.9569429,7.10762759 L20.6432286,6.9268 L20.5156571,3.66535172 L19.3295143,6.9268 L18.3903714,6.9268 L17.2015143,3.66535172 L17.0807286,6.9268 L15.7670143,7.10762759 L15.9529429,2.2148 Z M18.8626571,1.12852414 C8.91344286,1.12852414 0.850657143,8.9145931 0.850657143,18.5194207 C0.850657143,28.1229379 8.91344286,35.9103172 18.8626571,35.9103172 C28.8091571,35.9103172 36.8746571,28.1229379 36.8746571,18.5194207 C36.8746571,8.9145931 28.8091571,1.12852414 18.8626571,1.12852414 L18.8626571,1.12852414 Z" id="Fill-6" fill="#FFFFFF"></path>
                            <path d="M8.07133571,8.26715172 C8.11340714,8.08894483 8.07133571,7.90418621 7.94240714,7.76528966 C7.78497857,7.60149655 7.52983571,7.54515172 7.30997857,7.63032414 C7.15255,7.69322069 7.05755,7.82556552 6.95576429,7.95397931 C6.55540714,8.42963448 6.16319286,8.90528966 5.76826429,9.38094483 C5.76419286,9.38749655 5.67869286,9.4883931 5.68547857,9.49101379 C5.76012143,9.5526 5.84155,9.61287586 5.92433571,9.67708276 C6.13469286,9.84218621 6.34776429,10.0059793 6.55540714,10.1710828 C6.76712143,9.91687586 6.97069286,9.66791034 7.18105,9.41501379 C7.39140714,9.16473793 7.59633571,8.91577241 7.80669286,8.66418621 C7.90712143,8.53970345 8.02383571,8.4243931 8.07133571,8.26715172" id="Fill-8" fill="#FFFFFF"></path>
                            <path d="M8.17407143,18.5188966 L18.8629286,18.5188966 L18.8629286,8.20124138 C13.0285714,8.34931034 8.32742857,12.8870345 8.17407143,18.5188966" id="Fill-10" fill="#FFFFFF"></path>
                            <path d="M18.8629286,28.8398276 C24.6959286,28.6904483 29.3970714,24.1501034 29.5504286,18.5195517 L18.8629286,18.5195517 L18.8629286,28.8398276 Z" id="Fill-12" fill="#FFFFFF"></path>
                        </g>
                    </g>
                </g>
            </g>
        </g>
    </g>
</svg>
